img/referring/check-icon.svg

<?xml version="1.0" encoding="UTF-8"?><!DOCTYPE svg PUBLIC "-//W3C//DTD SVG 1.1//EN" "http://www.w3.org/Graphics/SVG/1.1/DTD/svg11.dtd"><svg xmlns="http://www.w3.org/2000/svg" xmlns:xlink="http://www.w3.org/1999/xlink" version="1.1" width="24" height="24" viewBox="0 0 24 24"><path d="M2,6V8H14V6H2M2,10V12H14V10H2M20.04,10.13C19.9,10.13 19.76,10.19 19.65,10.3L18.65,11.3L20.7,13.35L21.7,12.35C21.92,12.14 21.92,11.79 21.7,11.58L20.42,10.3C20.31,10.19 20.18,10.13 20.04,10.13M18.07,11.88L12,17.94V20H14.06L20.12,13.93L18.07,11.88M2,14V16H10V14H2Z" /></svg>

<?xml version="1.0" encoding="utf-8"?>
<!-- Generator: Adobe Illustrator 24.0.1, SVG Export Plug-In . SVG Version: 6.00 Build 0)  -->
<svg version="1.1" id="圖層_1" xmlns="http://www.w3.org/2000/svg" xmlns:xlink="http://www.w3.org/1999/xlink" x="0px" y="0px"
	 viewBox="0 0 24 24" style="enable-background:new 0 0 24 24;" xml:space="preserve">
<style type="text/css">
	.st0{fill:#FFFFFF;}
</style>
<path class="st0" d="M2,6v2h12V6H2 M2,10v2h12v-2H2 M20,10.1c-0.1,0-0.3,0.1-0.4,0.2l-1,1l2.1,2.1l1-1c0.2-0.2,0.2-0.6,0-0.8
	l-1.3-1.3C20.3,10.2,20.2,10.1,20,10.1 M18.1,11.9L12,17.9V20h2.1l6.1-6.1L18.1,11.9 M2,14v2h8v-2H2z"/>
</svg>
